images/svg/icons.svg

<svg xmlns="http://www.w3.org/2000/svg" aria-hidden="true" overflow="hidden" style="position:absolute;width:0;height:0">
  <defs>
    <symbol id="icon-arrow" viewBox="0 0 36 32">
      <path d="M1.062 17.414a2 2 0 0 1 0-2.828L13.79 1.858a2 2 0 1 1 2.828 2.828L5.304 16l11.314 11.314a2 2 0 1 1-2.828 2.828L1.062 17.414zM36 18H2.476v-4H36v4z"/>
    </symbol>
    <symbol id="icon-facebook" viewBox="0 0 32 32">
      <path d="M0 16C0 7.163 7.163 0 16 0s16 7.163 16 16-7.163 16-16 16S0 24.837 0 16zm17.668 9.408v-8.705h2.403l.319-3h-2.721l.004-1.501c0-.782.074-1.202 1.198-1.202h1.502V8H17.97c-2.887 0-3.903 1.455-3.903 3.902v1.801h-1.799v3h1.799v8.705h3.602z"/>
    </symbol>
    <symbol id="icon-instagram" viewBox="0 0 32 32">
      <path d="M0 16C0 7.163 7.163 0 16 0s16 7.163 16 16-7.163 16-16 16S0 24.837 0 16zm16.001-8.533c-2.317 0-2.608.01-3.519.052-.909.042-1.528.185-2.071.396-.561.218-1.037.51-1.512.984s-.766.95-.985 1.511c-.212.543-.356 1.163-.396 2.071-.041.91-.051 1.201-.051 3.519s.01 2.607.052 3.518c.042.909.186 1.529.396 2.071.218.561.51 1.037.984 1.512s.95.767 1.511.985c.543.211 1.163.355 2.072.396.91.041 1.201.052 3.518.052s2.608-.01 3.518-.052c.908-.042 1.529-.185 2.072-.396.561-.218 1.036-.51 1.511-.985s.766-.95.985-1.512c.21-.543.354-1.163.396-2.071.041-.91.052-1.2.052-3.518s-.011-2.608-.052-3.519c-.043-.909-.187-1.529-.396-2.071-.219-.561-.51-1.037-.985-1.512s-.949-.766-1.511-.984c-.544-.211-1.164-.355-2.073-.396-.91-.041-1.2-.052-3.518-.052h.003z"/>
      <path d="M15.235 9.005h.766c2.278 0 2.548.008 3.448.049.832.038 1.284.177 1.584.294.398.155.682.34.981.638s.484.583.639.981c.117.3.256.752.294 1.584.041.899.05 1.17.05 3.447s-.009 2.548-.05 3.447c-.038.832-.177 1.284-.294 1.584-.155.398-.34.682-.639.98s-.582.483-.981.638c-.3.117-.752.256-1.584.294-.9.041-1.17.05-3.448.05s-2.549-.009-3.448-.05c-.832-.038-1.284-.177-1.585-.294-.398-.155-.683-.34-.981-.638s-.484-.582-.639-.981c-.117-.3-.256-.752-.294-1.584-.041-.9-.049-1.17-.049-3.449s.008-2.548.049-3.447c.038-.832.177-1.284.294-1.584.155-.398.34-.683.639-.981s.583-.484.981-.639c.301-.117.753-.256 1.585-.294.787-.036 1.092-.046 2.683-.048v.002zm5.32 1.417a1.024 1.024 0 1 0 0 2.048 1.024 1.024 0 0 0 0-2.048zM16 11.618a4.382 4.382 0 1 0 0 8.764 4.382 4.382 0 0 0 0-8.764z"/>
      <path d="M16.001 13.155a2.844 2.844 0 1 1 .001 5.689 2.844 2.844 0 0 1-.001-5.689z"/>
    </symbol>
    <symbol id="icon-home" viewBox="0 0 32 32">
        <path d="M32 18.451l-16-12.42-16 12.42v-5.064l16-12.42 16 12.42zM28 18v12h-8v-8h-8v8h-8v-12l12-9z"></path>
    </symbol>
    <symbol id="icon-menu" viewBox="0 0 32 32">
      <path d="M29.333 24.007c0 0.733-0.595 1.327-1.327 1.327h-10.68c-0.733 0-1.327-0.594-1.327-1.327s0.594-1.327 1.327-1.327h10.68c0.733 0 1.327 0.593 1.327 1.327zM29.333 16c0 0.733-0.595 1.327-1.327 1.327h-24.013c-0.733 0-1.327-0.594-1.327-1.327s0.594-1.327 1.327-1.327h24.013c0.733 0 1.327 0.595 1.327 1.327zM28.007 9.32c0.733 0 1.327-0.594 1.327-1.327s-0.594-1.327-1.327-1.327h-16.013c-0.733 0-1.327 0.594-1.327 1.327s0.594 1.327 1.327 1.327h16.013z"></path>
    </symbol>
    <symbol id="icon-close" viewBox="0 0 24 24">
      <path stroke-linejoin="miter" stroke-linecap="round" stroke-miterlimit="4" stroke-width="2" d="M9 6l6 6 6-6M9 18l6-6 6 6"></path>
    </symbol>
  </defs>
</svg>

<svg xmlns="http://www.w3.org/2000/svg" aria-hidden="true" overflow="hidden" style="position:absolute;width:0;height:0"><defs><symbol id="icon-arrow" viewBox="0 0 36 32"><path d="M1.062 17.414a2 2 0 0 1 0-2.828L13.79 1.858a2 2 0 1 1 2.828 2.828L5.304 16l11.314 11.314a2 2 0 1 1-2.828 2.828L1.062 17.414zM36 18H2.476v-4H36v4z"/></symbol><symbol id="icon-facebook" viewBox="0 0 32 32"><path d="M0 16C0 7.163 7.163 0 16 0s16 7.163 16 16-7.163 16-16 16S0 24.837 0 16zm17.668 9.408v-8.705h2.403l.319-3h-2.721l.004-1.501c0-.782.074-1.202 1.198-1.202h1.502V8H17.97c-2.887 0-3.903 1.455-3.903 3.902v1.801h-1.799v3h1.799v8.705h3.602z"/></symbol><symbol id="icon-instagram" viewBox="0 0 32 32"><path d="M0 16C0 7.163 7.163 0 16 0s16 7.163 16 16-7.163 16-16 16S0 24.837 0 16zm16.001-8.533c-2.317 0-2.608.01-3.519.052-.909.042-1.528.185-2.071.396-.561.218-1.037.51-1.512.984s-.766.95-.985 1.511c-.212.543-.356 1.163-.396 2.071-.041.91-.051 1.201-.051 3.519s.01 2.607.052 3.518c.042.909.186 1.529.396 2.071.218.561.51 1.037.984 1.512s.95.767 1.511.985c.543.211 1.163.355 2.072.396.91.041 1.201.052 3.518.052s2.608-.01 3.518-.052c.908-.042 1.529-.185 2.072-.396.561-.218 1.036-.51 1.511-.985s.766-.95.985-1.512c.21-.543.354-1.163.396-2.071.041-.91.052-1.2.052-3.518s-.011-2.608-.052-3.519c-.043-.909-.187-1.529-.396-2.071-.219-.561-.51-1.037-.985-1.512s-.949-.766-1.511-.984c-.544-.211-1.164-.355-2.073-.396-.91-.041-1.2-.052-3.518-.052h.003z"/><path d="M15.235 9.005h.766c2.278 0 2.548.008 3.448.049.832.038 1.284.177 1.584.294.398.155.682.34.981.638s.484.583.639.981c.117.3.256.752.294 1.584.041.899.05 1.17.05 3.447s-.009 2.548-.05 3.447c-.038.832-.177 1.284-.294 1.584-.155.398-.34.682-.639.98s-.582.483-.981.638c-.3.117-.752.256-1.584.294-.9.041-1.17.05-3.448.05s-2.549-.009-3.448-.05c-.832-.038-1.284-.177-1.585-.294-.398-.155-.683-.34-.981-.638s-.484-.582-.639-.981c-.117-.3-.256-.752-.294-1.584-.041-.9-.049-1.17-.049-3.449s.008-2.548.049-3.447c.038-.832.177-1.284.294-1.584.155-.398.34-.683.639-.981s.583-.484.981-.639c.301-.117.753-.256 1.585-.294.787-.036 1.092-.046 2.683-.048v.002zm5.32 1.417a1.024 1.024 0 1 0 0 2.048 1.024 1.024 0 0 0 0-2.048zM16 11.618a4.382 4.382 0 1 0 0 8.764 4.382 4.382 0 0 0 0-8.764z"/><path d="M16.001 13.155a2.844 2.844 0 1 1 .001 5.689 2.844 2.844 0 0 1-.001-5.689z"/></symbol><symbol id="icon-home" viewBox="0 0 32 32"><path d="M32 18.451 16 6.031 0 18.451v-5.064L16 .967l16 12.42zM28 18v12h-8v-8h-8v8H4V18l12-9z"/></symbol><symbol id="icon-menu" viewBox="0 0 32 32"><path d="M29.333 24.007c0 .733-.595 1.327-1.327 1.327h-10.68a1.327 1.327 0 1 1 0-2.654h10.68c.733 0 1.327.593 1.327 1.327zm0-8.007c0 .733-.595 1.327-1.327 1.327H3.993a1.327 1.327 0 1 1 0-2.654h24.013c.733 0 1.327.595 1.327 1.327zm-1.326-6.68a1.327 1.327 0 1 0 0-2.654H11.994a1.327 1.327 0 1 0 0 2.654h16.013z"/></symbol><symbol id="icon-close" viewBox="0 0 24 24"><path stroke-linecap="round" stroke-width="2" d="m9 6 6 6 6-6M9 18l6-6 6 6"/></symbol></defs></svg>
